projects/virtualkubelet/icon/white/virtualkubelet-icon-white.svg

<svg id="Layer_1" data-name="Layer 1" xmlns="http://www.w3.org/2000/svg" viewBox="0 0 360 360"><defs><style>.cls-1{fill:#fff;}</style></defs><title>virtualkubelet-icon-white</title><path class="cls-1" d="M38.46928,75.41621,176.22,326.36693,319.42588,75.41621,178.94674,5.85917"/><path class="cls-1" d="M257.72325,348.70051H102.53775l-96.761-121.3301L40.3105,76.07285,180.12966,8.73963,319.94882,76.07284l34.53376,151.29757ZM111.51159,330.06106H248.74772l85.565-107.29539L303.77384,88.9714,180.12966,29.42746,56.48551,88.97141,25.94664,222.76567Z"/><path class="cls-1" d="M258.76416,350.85917h-157.269L3.44264,227.9034,38.43753,74.57749,180.12966,6.342l.93565.45111L321.82347,74.57748l34.9949,153.32592ZM103.5753,346.54182H256.684l95.46111-119.7044L318.07585,77.56822,180.12966,11.13388l-137.9462,66.431L8.11419,226.83406ZM249.787,332.2214H110.474L23.60918,223.29865l31-135.82261L180.12966,27.02987l125.5188,60.44618,31,135.82429Zm-137.23445-4.319H247.70679l84.26844-105.6697L301.90084,90.4651,180.12966,31.82339,58.35847,90.4651,28.28408,222.23268Z"/></svg>

<svg xmlns="http://www.w3.org/2000/svg" role="img" viewBox="-3.82 -1.32 367.64 359.14"><defs><style>.cls-1{fill:#fff}</style></defs><path d="M38.47 75.416l137.75 250.95 143.206-250.95L178.946 5.86" class="cls-1"/><path d="M257.723 348.7H102.538L5.777 227.37 40.31 76.073 180.13 8.74l139.819 67.333 34.534 151.297zm-146.211-18.639h137.236l85.565-107.295-30.54-133.795L180.13 29.427 56.486 88.971l-30.54 133.795z" class="cls-1"/><path d="M258.764 350.86H101.495L3.443 227.902 38.438 74.577 180.13 6.342l.935.451 140.758 67.784 34.995 153.326zm-155.189-4.318h153.109l95.461-119.705-34.07-149.269L180.13 11.134 42.183 77.564 8.114 226.835zm146.212-14.32H110.474L23.609 223.298l31-135.823L180.13 27.03l125.52 60.446 31 135.824zm-137.234-4.32h135.154l84.268-105.67-30.074-131.767L180.13 31.823 58.358 90.465 28.284 222.233z" class="cls-1"/></svg>
